src/qt/rpdchain/res/img/dark/ic-transaction-staked.svg

<svg xmlns="http://www.w3.org/2000/svg" width="24" height="24" viewBox="0 0 24 24">
    <defs>
        <style type="text/css">
            .cls-1{opacity:.7}.cls-2{fill:#fff}.cls-3{fill:none}
        </style>
    </defs>
    <g id="ic-transaction-staked" class="cls-1">
        <path id="Path_18914" d="M18 6V4.854a3 3 0 0 0-5.964-.3L12 4.586l-.033-.033A3 3 0 0 0 6 5v1H2v6h2v10h16V12h2V6zm-4-.586V5a1 1 0 0 1 2 0v1h-2.586zM13 8v8h-2V8zM8 5a1 1 0 0 1 2 0v.414l.586.586H8zM4 8h5v2H4zm14 12H6v-8h3v6h6v-6h3zm2-10h-5V8h5z" class="cls-2" data-name="Path 18914"/>
        <path id="Rectangle_4527" d="M0 0h24v24H0z" class="cls-3" data-name="Rectangle 4527"/>
    </g>
</svg>

<?xml version="1.0" encoding="UTF-8"?>
<svg id="ic-transaction-staked" xmlns="http://www.w3.org/2000/svg" viewBox="0 0 24 24">
  <defs>
    <style>
      .cls-1 {
        fill: none;
      }

      .cls-2 {
        fill: #f53;
      }
    </style>
  </defs>
  <path id="Path_18914" data-name="Path 18914" class="cls-2" d="m18,6v-1.15c-.08-1.66-1.48-2.93-3.14-2.86-1.43.07-2.61,1.14-2.83,2.56l-.04.03-.03-.03c-.25-1.64-1.77-2.77-3.41-2.52-1.47.22-2.56,1.48-2.56,2.97v1H2v6h2v10h16v-10h2v-6h-4Zm-4-.59v-.41c0-.55.45-1,1-1s1,.45,1,1v1h-2.59l.59-.59Zm-1,2.59v8h-2v-8h2Zm-5-3c0-.55.45-1,1-1s1,.45,1,1v.41l.59.59h-2.59v-1Zm-4,3h5v2h-5v-2Zm14,12H6v-8h3v6h6v-6h3v8Zm2-10h-5v-2h5v2Z"/>
  <path id="Rectangle_4527" data-name="Rectangle 4527" class="cls-1" d="m0,0h24v24H0V0Z"/>
</svg>
